gama.ui.shared/icons_svg/dark/overlays/small.inspect.svg

<svg height="16" viewBox="-383.026 -3115.658 16.667 16" width="16.667" xmlns="http://www.w3.org/2000/svg"><g fill="none"><path d="m-374.69246-3113.1124c-3.63634 0-6.74181 2.2618-7.99999 5.4544 1.25818 3.193 4.36365 5.4546 7.99999 5.4546 3.63636 0 6.74182-2.2616 8-5.4546-1.25818-3.1926-4.36364-5.4544-8-5.4544zm0 9.0909c-2.00727 0-3.63634-1.6291-3.63634-3.6365 0-2.007 1.62907-3.6363 3.63634-3.6363 2.00726 0 3.63636 1.6293 3.63636 3.6363 0 2.0074-1.6291 3.6365-3.63636 3.6365zm0-5.8182c-1.20727 0-2.18181.9747-2.18181 2.1817 0 1.2074.97454 2.182 2.18181 2.182 1.20726 0 2.18182-.9746 2.18182-2.182 0-1.207-.97456-2.1817-2.18182-2.1817z" fill="#999"/><path d="m-374.69246-3113.1124c-3.63634 0-6.74181 2.2618-7.99999 5.4544 1.25818 3.193 4.36365 5.4546 7.99999 5.4546 3.63636 0 6.74182-2.2616 8-5.4546-1.25818-3.1926-4.36364-5.4544-8-5.4544zm0 9.0909c-2.00727 0-3.63634-1.6291-3.63634-3.6365 0-2.007 1.62907-3.6363 3.63634-3.6363 2.00726 0 3.63636 1.6293 3.63636 3.6363 0 2.0074-1.6291 3.6365-3.63636 3.6365zm0-5.8182c-1.20727 0-2.18181.9747-2.18181 2.1817 0 1.2074.97454 2.182 2.18181 2.182 1.20726 0 2.18182-.9746 2.18182-2.182 0-1.207-.97456-2.1817-2.18182-2.1817z" stroke="#fff" stroke-linecap="round" stroke-linejoin="round" stroke-width=".667"/></g></svg>

<?xml version="1.0" encoding="UTF-8" standalone="no"?>
<!DOCTYPE svg PUBLIC "-//W3C//DTD SVG 1.1//EN" "http://www.w3.org/Graphics/SVG/1.1/DTD/svg11.dtd">
<svg xmlns="http://www.w3.org/2000/svg" xmlns:xl="http://www.w3.org/1999/xlink" version="1.1" xmlns:dc="http://purl.org/dc/elements/1.1/" viewBox="-383.0258 -3115.658 16.666662 16.000008" width="16.666662" height="16.000008">
  <defs/>
  <g id="SOURCES" stroke-opacity="1" fill="none" stroke="none" fill-opacity="1" stroke-dasharray="none">
    <title>SOURCES</title>
    <g id="SOURCES_Dark">
      <title>Dark</title>
      <g id="Graphic_11244">
        <title>views/tabs/view.inspector</title>
        <path d="M -374.69246 -3113.1124 C -378.3288 -3113.1124 -381.43427 -3110.8506 -382.69245 -3107.658 C -381.43427 -3104.465 -378.3288 -3102.2034 -374.69246 -3102.2034 C -371.0561 -3102.2034 -367.95064 -3104.465 -366.69246 -3107.658 C -367.95064 -3110.8506 -371.0561 -3113.1124 -374.69246 -3113.1124 Z M -374.69246 -3104.0215 C -376.69973 -3104.0215 -378.3288 -3105.6506 -378.3288 -3107.658 C -378.3288 -3109.665 -376.69973 -3111.2943 -374.69246 -3111.2943 C -372.6852 -3111.2943 -371.0561 -3109.665 -371.0561 -3107.658 C -371.0561 -3105.6506 -372.6852 -3104.0215 -374.69246 -3104.0215 Z M -374.69246 -3109.8397 C -375.89973 -3109.8397 -376.87427 -3108.865 -376.87427 -3107.658 C -376.87427 -3106.4506 -375.89973 -3105.476 -374.69246 -3105.476 C -373.4852 -3105.476 -372.51064 -3106.4506 -372.51064 -3107.658 C -372.51064 -3108.865 -373.4852 -3109.8397 -374.69246 -3109.8397 Z" fill="#999"/>
        <path d="M -374.69246 -3113.1124 C -378.3288 -3113.1124 -381.43427 -3110.8506 -382.69245 -3107.658 C -381.43427 -3104.465 -378.3288 -3102.2034 -374.69246 -3102.2034 C -371.0561 -3102.2034 -367.95064 -3104.465 -366.69246 -3107.658 C -367.95064 -3110.8506 -371.0561 -3113.1124 -374.69246 -3113.1124 Z M -374.69246 -3104.0215 C -376.69973 -3104.0215 -378.3288 -3105.6506 -378.3288 -3107.658 C -378.3288 -3109.665 -376.69973 -3111.2943 -374.69246 -3111.2943 C -372.6852 -3111.2943 -371.0561 -3109.665 -371.0561 -3107.658 C -371.0561 -3105.6506 -372.6852 -3104.0215 -374.69246 -3104.0215 Z M -374.69246 -3109.8397 C -375.89973 -3109.8397 -376.87427 -3108.865 -376.87427 -3107.658 C -376.87427 -3106.4506 -375.89973 -3105.476 -374.69246 -3105.476 C -373.4852 -3105.476 -372.51064 -3106.4506 -372.51064 -3107.658 C -372.51064 -3108.865 -373.4852 -3109.8397 -374.69246 -3109.8397 Z" stroke="white" stroke-linecap="round" stroke-linejoin="round" stroke-width=".6666665"/>
      </g>
      <g id="Graphic_12164"/>
    </g>
  </g>
</svg>
